X: 04
T: Success to Trace
R: jig
M: 6/8
L: 1/8
Z: 2010 John Chambers <jc:trillian.mit.edu>
B: John Johnson ed. "Twenty Four Country Dances", p.74 London 1766
K: Em
E | BcB (Be)B | ABA (A^d)e | (GB)g fe^d | e(g/f/e/^d/) e2((3D/E/F/) |
(GA)G Ged | (FA)A ABc | Bdg d(b/a/g/f/) | g(d/c/B/A/) G2 :||: A |
(B/c/d)d d2c | (Bg)g g2f | (e^d)e gfe | B(f/e/^d/^c/) B2e |
(c/B/A)a a2f | (^d/^c/B)b b2(B/A/) | (GB)e Fe^d | e(B/A/G/F/) E2 :|


%%sep 5 1 500

